assets/images/projects/section--collaborations.svg

<svg fill="none" height="1233" viewBox="0 0 1357 1233" width="1357" xmlns="http://www.w3.org/2000/svg" xmlns:xlink="http://www.w3.org/1999/xlink"><filter id="a" color-interpolation-filters="sRGB" filterUnits="userSpaceOnUse" height="873" width="873" x="242" y="180"><feFlood flood-opacity="0" result="BackgroundImageFix"/><feBlend in="SourceGraphic" in2="BackgroundImageFix" mode="normal" result="shape"/><feTurbulence baseFrequency=".5 .5" numOctaves="3" seed="3166" type="fractalNoise"/><feDisplacementMap height="100%" in="shape" result="displacedImage" scale="120" width="100%" xChannelSelector="R" yChannelSelector="G"/><feMerge result="effect1_texture_284_1458"><feMergeNode in="displacedImage"/></feMerge></filter><linearGradient id="b" gradientUnits="userSpaceOnUse" x1="678.313" x2="678.313" y1="993" y2="240"><stop offset=".375551" stop-color="#9ee6ff" stop-opacity=".95"/><stop offset=".875771" stop-color="#001c4e"/><stop offset="1" stop-color="#001c4e"/></linearGradient><path d="m0 0h1357v1233h-1357z" fill="#001c4e"/><g filter="url(#a)"><ellipse cx="678.5" cy="616.5" fill="url(#b)" fill-opacity=".9" rx="376.5" ry="376.5" transform="matrix(-1 -0 0 -1 1357 1233)"/></g><g stroke="#fff" stroke-width="2.39975"><path d="m693.737 852.8c-9.814 0-19.378-6.287-28.264-18.164-8.871-11.856-16.91-29.089-23.683-50.491-13.541-42.789-21.935-101.977-21.935-167.407s8.394-124.617 21.935-167.407c6.773-21.402 14.812-38.634 23.683-50.49 8.886-11.878 18.45-18.164 28.264-18.164s19.378 6.286 28.265 18.164c8.871 11.856 16.911 29.088 23.684 50.49 13.541 42.79 21.934 101.977 21.934 167.407s-8.393 124.618-21.934 167.408c-6.773 21.401-14.813 38.634-23.684 50.49-8.887 11.877-18.451 18.164-28.265 18.164z"/><path d="m929.8 616.749c0 9.814-6.287 19.378-18.164 28.265-11.856 8.87-29.089 16.91-50.49 23.682-42.79 13.541-101.978 21.936-167.408 21.936s-124.617-8.395-167.407-21.936c-21.402-6.772-38.634-14.812-50.49-23.682-11.878-8.887-18.164-18.451-18.164-28.265s6.286-19.378 18.164-28.265c11.856-8.87 29.088-16.911 50.49-23.683 42.79-13.541 101.977-21.935 167.407-21.935s124.618 8.394 167.408 21.935c21.401 6.773 38.634 14.813 50.49 23.683 11.877 8.887 18.164 18.451 18.164 28.265z"/><path d="m895.265 733.864c0 8.366-5.324 16.549-15.453 24.176-10.108 7.612-24.811 14.519-43.087 20.34-36.539 11.638-87.092 18.855-142.984 18.855s-106.444-7.217-142.983-18.855c-18.276-5.821-32.979-12.728-43.087-20.34-10.129-7.627-15.453-15.81-15.453-24.176s5.324-16.548 15.453-24.176c10.108-7.612 24.811-14.518 43.087-20.339 36.539-11.639 87.091-18.856 142.983-18.856s106.445 7.217 142.984 18.856c18.276 5.821 32.979 12.727 43.087 20.339 10.129 7.628 15.453 15.81 15.453 24.176z"/><path d="m895.265 499.607c0 8.367-5.324 16.549-15.453 24.176-10.108 7.612-24.811 14.519-43.087 20.34-36.539 11.638-87.092 18.856-142.984 18.856-55.892-.001-106.444-7.218-142.983-18.856-18.276-5.821-32.979-12.728-43.087-20.34-10.129-7.627-15.453-15.809-15.453-24.176 0-8.366 5.324-16.548 15.453-24.175 10.108-7.612 24.811-14.519 43.087-20.34 36.539-11.638 87.091-18.856 142.983-18.856s106.445 7.218 142.984 18.856c18.276 5.821 32.979 12.727 43.087 20.34 10.129 7.627 15.453 15.809 15.453 24.175z"/><path d="m693.739 852.804c-45.111 0-86.078-26.263-115.816-68.978-29.736-42.711-48.165-101.78-48.165-167.084 0-65.303 18.429-124.373 48.165-167.084 29.738-42.715 70.705-68.977 115.816-68.977 45.112 0 86.079 26.262 115.818 68.977 29.735 42.711 48.165 101.781 48.165 167.084 0 65.304-18.43 124.373-48.165 167.084-29.739 42.715-70.706 68.978-115.818 68.978z"/></g><path d="m0 0h31.1968v31.1968h-31.1968z" fill="#fff" transform="matrix(-1 0 0 1 595.484 433.612)"/><path d="m0 0h31.1968v31.1968h-31.1968z" fill="#fff" transform="matrix(-1 0 0 1 782.664 544.001)"/><path d="m0 0h31.1968v31.1968h-31.1968z" fill="#fff" transform="matrix(-1 0 0 1 869.055 655.589)"/><path d="m0 0h31.1968v31.1968h-31.1968z" fill="#fff" transform="matrix(-1 0 0 1 596.684 764.778)"/></svg>

<svg width="1357" height="1233" viewBox="0 0 1357 1233" fill="none" xmlns="http://www.w3.org/2000/svg">
<rect width="1357" height="1233" fill="#001C4E"/>
<g filter="url(#filter0_g_284_1458)">
<ellipse cx="678.5" cy="616.5" rx="376.5" ry="376.5" transform="rotate(-180 678.5 616.5)" fill="url(#paint0_linear_284_1458)" fill-opacity="0.9"/>
</g>
<path d="M693.737 852.8C683.923 852.8 674.359 846.513 665.473 834.636C656.602 822.78 648.563 805.547 641.79 784.145C628.249 741.356 619.855 682.168 619.855 616.738C619.855 551.308 628.249 492.121 641.79 449.331C648.563 427.929 656.602 410.697 665.473 398.841C674.359 386.963 683.923 380.677 693.737 380.677C703.551 380.677 713.115 386.963 722.002 398.841C730.873 410.697 738.913 427.929 745.686 449.331C759.227 492.121 767.62 551.308 767.62 616.738C767.62 682.168 759.227 741.356 745.686 784.146C738.913 805.547 730.873 822.78 722.002 834.636C713.115 846.513 703.551 852.8 693.737 852.8Z" stroke="white" stroke-width="2.39975"/>
<path d="M929.8 616.749C929.8 626.563 923.513 636.127 911.636 645.014C899.78 653.884 882.547 661.924 861.146 668.696C818.356 682.237 759.168 690.632 693.738 690.632C628.308 690.632 569.121 682.237 526.331 668.696C504.929 661.924 487.697 653.884 475.841 645.014C463.963 636.127 457.677 626.563 457.677 616.749C457.677 606.935 463.963 597.371 475.841 588.484C487.697 579.614 504.929 571.573 526.331 564.801C569.121 551.26 628.308 542.866 693.738 542.866C759.168 542.866 818.356 551.26 861.146 564.801C882.547 571.574 899.78 579.614 911.636 588.484C923.513 597.371 929.8 606.935 929.8 616.749Z" stroke="white" stroke-width="2.39975"/>
<path d="M895.265 733.864C895.265 742.23 889.941 750.413 879.812 758.04C869.704 765.652 855.001 772.559 836.725 778.38C800.186 790.018 749.633 797.235 693.741 797.235C637.849 797.235 587.297 790.018 550.758 778.38C532.482 772.559 517.779 765.652 507.671 758.04C497.542 750.413 492.218 742.23 492.218 733.864C492.218 725.498 497.542 717.316 507.671 709.688C517.779 702.076 532.482 695.17 550.758 689.349C587.297 677.71 637.849 670.493 693.741 670.493C749.633 670.493 800.186 677.71 836.725 689.349C855.001 695.17 869.704 702.076 879.812 709.688C889.941 717.316 895.265 725.498 895.265 733.864Z" stroke="white" stroke-width="2.39975"/>
<path d="M895.265 499.607C895.265 507.974 889.941 516.156 879.812 523.783C869.704 531.395 855.001 538.302 836.725 544.123C800.186 555.761 749.633 562.979 693.741 562.979C637.849 562.978 587.297 555.761 550.758 544.123C532.482 538.302 517.779 531.395 507.671 523.783C497.542 516.156 492.218 507.974 492.218 499.607C492.218 491.241 497.542 483.059 507.671 475.432C517.779 467.82 532.482 460.913 550.758 455.092C587.297 443.454 637.849 436.236 693.741 436.236C749.633 436.236 800.186 443.454 836.725 455.092C855.001 460.913 869.704 467.819 879.812 475.432C889.941 483.059 895.265 491.241 895.265 499.607Z" stroke="white" stroke-width="2.39975"/>
<path d="M693.739 852.804C648.628 852.804 607.661 826.541 577.923 783.826C548.187 741.115 529.758 682.046 529.758 616.742C529.758 551.439 548.187 492.369 577.923 449.658C607.661 406.943 648.628 380.681 693.739 380.681C738.851 380.681 779.818 406.943 809.557 449.658C839.292 492.369 857.722 551.439 857.722 616.742C857.722 682.046 839.292 741.115 809.557 783.826C779.818 826.541 738.851 852.804 693.739 852.804Z" stroke="white" stroke-width="2.39975"/>
<rect width="31.1968" height="31.1968" transform="matrix(-1 0 0 1 595.484 433.612)" fill="white"/>
<rect width="31.1968" height="31.1968" transform="matrix(-1 0 0 1 782.664 544.001)" fill="white"/>
<rect width="31.1968" height="31.1968" transform="matrix(-1 0 0 1 869.055 655.589)" fill="white"/>
<rect width="31.1968" height="31.1968" transform="matrix(-1 0 0 1 596.684 764.778)" fill="white"/>
<defs>
<filter id="filter0_g_284_1458" x="242" y="180" width="873" height="873" filterUnits="userSpaceOnUse" color-interpolation-filters="sRGB">
<feFlood flood-opacity="0" result="BackgroundImageFix"/>
<feBlend mode="normal" in="SourceGraphic" in2="BackgroundImageFix" result="shape"/>
<feTurbulence type="fractalNoise" baseFrequency="0.5 0.5" numOctaves="3" seed="3166" />
<feDisplacementMap in="shape" scale="120" xChannelSelector="R" yChannelSelector="G" result="displacedImage" width="100%" height="100%" />
<feMerge result="effect1_texture_284_1458">
<feMergeNode in="displacedImage"/>
</feMerge>
</filter>
<linearGradient id="paint0_linear_284_1458" x1="678.313" y1="993" x2="678.313" y2="240" gradientUnits="userSpaceOnUse">
<stop offset="0.375551" stop-color="#9EE6FF" stop-opacity="0.95"/>
<stop offset="0.875771" stop-color="#001C4E"/>
<stop offset="1" stop-color="#001C4E"/>
</linearGradient>
</defs>
</svg>
